X:1
T:Title
%%score { ( 1 2 6 ) | ( 3 4 5 ) }
L:1/8
Q:1/4=100
M:6/8
K:Eb
V:1 treble nm="Grand Piano"
V:2 treble 
V:6 treble 
V:3 treble 
V:4 treble 
V:5 treble 
V:1
 z3 .d3 | z GG z GG | .B3 .A3 | G6 | z3 .d3 | c3 .[B,B]3 | .G3 .G3 | E6 | z3 .=G3 | d3 .c3 | %10
 .=A3 .A3 | F6 | z3 .=G3 | d3 .B3 | .d3 .G3 | B3 z3 |[M:4/4] G A2 [GB] [Gc][Gd][Ge][Gd] | %17
 [Gc][EG][FA][GB] [Gc][GB][Gc][GB]- | [GB][EG][FA][GB] [Gc][Gd][Ge][Gd] | z8 | z8 | z8 | %22
 z4 z2 z G- | G2 z2 z4 | z8 |] %25
V:2
 GBc z G[EGc] | [Cc]3 .B3 | z FF z CE | z B,C DEF | GBc z Gc | z GG z =EG | z EF z DF | %7
 z B,B, .B,3 | DF_G z Ee | z FF z FB | z EG z EG | z DD G,DD | DF_G z Ee | z FF z Fd | %14
 z =Ec z _E=A | z DD [DA]3 |[M:4/4] x8 | x8 | x8 | [Gc][EG]BA G[DA][DG][DA]- | %20
 [DA][DF][DG][DA] [DG][DA][DB][Ad]- | [Ad][Ac][Ad][Gf] [Ge][Fd][_Gc][=GB]- | %22
 [GB][EB][EB][Ec] [Ec][CE][CF]=B,- | B, z B[=A,_EG]- [A,EG] [_A,DF]2 [G,B,E]- | [G,B,E]4 z4 |] %25
V:3
 G,[B,EG][CEG] z EC | z EE z E[G,B,E] | z [B,D][B,D] z2 =B, | [E,,E,]3 [B,,,B,,]3 | %4
 G,[K:treble][B,EG][CEG] z E[CEG] | z =EE z C[G,B,E] | z =A,[A,E] z B,[_A,D] | %7
 E,,[=A,,G,][B,,G,] .[E,G,]3 | z [F,D][_G,D] =G,2 [_G,E] | F,-[F,-D][F,-D] F,-[F,-D][F,-DF] | %10
 F,2- [F,-E] F,2- [F,E] | z E,F, z E,F, | z [F,D][_G,D] =G,2 [_G,E] | z DD z[K:treble] DF | %14
 z B,[B,=E] z C[C_E] | z D,F, B,3 |[M:4/4][K:treble] z8[K:bass] | z8 | z8 | %19
 z [B,,B,]2 [F,B,]- [F,B,] z z2 | z8 | z8 | z8 | z8 | z8 |] %25
V:4
 z3 .D3 | z3 .B,3 | [F,,F,]3 [B,,,B,,]3 | x6 | z3[K:treble] .D3 | [=E,C]3 C,3 | %6
 [F,,F,]3 [B,,,B,,]3 | x6 | B,,6 | B,,3 F,,3 | C,3 z3 | B,,6 | B,,6 | [B,,F,]3 [B,,B,]3[K:treble] | %14
 C,3 F,3 | B,,6 |[M:4/4][K:treble] E F2[K:bass] [E,B,]- [E,B,] [B,,B,]2 [E,B,]- | %17
 [E,B,] [B,,B,]2 [E,B,]- [E,B,] [B,,B,]2 [E,B,]- | %18
 [E,B,] [B,,B,]2 [E,B,]- [E,B,] [B,,B,]2 [E,B,]- | [E,B,] z [EG]D D [B,,B,]2 [F,B,]- | %20
 [F,B,] [B,,B,]2 [F,B,]- [F,B,] [B,,B,]2 [F,B,D]- | %21
 [F,B,D] [B,,B,]2 [E,B,]- [E,B,] [E,=A,]2 [E,B,]- | %22
 [E,B,] [E,G,]2 [A,,A,]- [A,,A,] [A,,A,]2 [G,,G,]- | %23
 [G,,G,] [C,,C,]2 [F,,F,]- [F,,F,] [B,,,B,,]2 [E,,E,]- | [E,,E,]4 z4 |] %25
V:5
 E,6 | E,6 | x6 | x6 | E,6[K:treble] | x6 | x6 | x6 | x6 | x6 | x6 | x6 | x6 | x4[K:treble] x2 | %14
 x6 | x6 |[M:4/4][K:treble] x3[K:bass] x5 | x8 | x8 | x8 | x8 | x8 | x8 | x8 | x8 |] %25
V:6
 x6 | x6 | x6 | x6 | x6 | x6 | x6 | x6 | x6 | x6 | x6 | x6 | x6 | x6 | x6 | x6 |[M:4/4] x8 | x8 | %18
 x8 | x8 | x8 | x8 | x8 | z .[_B,=E]3 z4 | x8 |] %25

